X:1 
T:Herzdame
C:Trad.
Z:Bart Vanhaverbeke 
P:ABACADACABA(A)
L:1/8
M:3/4
K:F
P:A
C2 || F4 F2 | F4 F2 | G>A B>A G2 | A>B c>B A2 | (d2 d)>c B>A | 
G>A B>A G2 |1 (3AGF E2 D2 | C4 C2 :|2 (3ABc F2 E2 | F4 z2 |]
P:B
z2 F4 | z2 G4 | Fd ^cd AF | EA ^GA A,2 | z2 A4 | 
z2 B4 |1 A2 G2 F2 | E6 :|2 A2 GF E2 | D6 |]
P:C
K:Bb
FD FD FD | FE FE FE | DF B2 c2 | d6 | DF B2 c2 | 
d6 | ed ce dc | dc Bd cB |1 AB cA Gc | F6:|2 AG FE DC | B,6 |]
P:D
K:F
D>E FE D^C | DE FG A2 | B>A GB AG | A2 E4 | 
F>E DE FG | A=B ^cd e2 | f>e d2 ^c2 |1 dA BG EA :|2 d6 |]
